X:240
T: Chanson XL1V - Hellas, madame, que je désire tant
T: Manuscript de Bayeux
R:Chanson
Z:Transcrit et/ou corrigé par B@D - 2006-04-24
Z:Pour toute observation mailto:-@-
M: 2/4
K: C
V: 1
L: 1/4
c c/c/|B>c|B/A/ A/^G/|A2 |c c/c/|B/4A/4B/4c/4 B/c/|B/A/ A/^G/|A z/A/|
A/G/ A/B/|c>c|d/c/ c/B/|c>c|c/>c/ c/c/|B>c|B/A/ A/^G/|
A>A|c/>c/ c/c/|B/4A/4B/4c/4 B/c/|B/A/ A/^G/|A2||
V: 2
L: 1/4
c e/e/|d>e|d/4c/4B/4A/4 B/B/|A2|e e/e/|d>e|d/c/ B/B/|e z/A/|
c/>B/ c/d/|e>e|f/>e/ d/d/|A>c|e/>e/ e/e/|d>e|d/4c/4B/4A/4 B/B/|
A>A|A/A/ e|-e/e/ d/e/|d/c/ B/B/|c2||
V: 3
L: 1/4
A/>G/ A/4B/4c/4d/4|e/4f/4 g a/|g/f/ e/>e/|e2|c c/c/|g/4f/4g/4a/4 g/a/|g/f/ e/>e/|A z|
e/e/ e/4d/4e/4f/4|g G/A/|d/G/4A/4 B/4G/4g/|e>e|e/A/4G/4 A/4B/4c/4d/4|e/4f/4 g a/|g/f/ e/e/|
e2|c/>c/ A/e/|g>a|g/f/ e/>e/|e2||




%%header "$P0	 $IR 	$P1"
%%footer $D - Éditions Galouvielle - 2009 - À usage librement privé dans le cadre familial

